!!!SOCIAL_FUNCTION:	songs of medicine men's dance
!!!PDT:	1956
!!!OTL: No_20_Corn_Dance_Song_(j).krn
!!!LANG: Non-Tone
!!!LING_GROUP: Muskogean
!!!REG: Florida
**kern
*staff1
=1-
*clefF4
*k[b-]
*M2/4
16d\LK
8.d\J
16d\LK
8.c\J
=2!|:
16c\LK
8c\
16c\Jk
8.c\L
16c\Jk
=3
8.c\L
16B-\Jk
16c\LK
8.G\J
=4
16F\LK
8G\
16G\Jk
16G\LK
8.F\J
=5
8F\L
8D\J
4C/
=6
8D\L
8F\J
4D\
=7||
*M3/4
8C/L
16.C/L
32C/JJk
8.C/L
16C/Jk
4C/
=8||
*M2/4
16F\LK
8.D\J
16D/LK
8.C/J
=9
8D\L
8F\J
4D\
=10||
*M3/4
8C/L
16.C/L
32C/JJk
8.C/L
16C/Jk
4C/
=11
*M2/4
16c\LK
8.d\J
16d\LK
8.c\J
==:|!
*-
